X: 7950
T: Condon's Frolics
R: jig
M: 6/8
K: Adorian
|:eAB c2d|edc BAG|eAB c2d|e2d eag|
eAB c2d|edc BAB|GBd gdB|ABA A3:|
|:eaa egg|dec BAG|cBc dcd|e2d efg|
eaa egg|dec BAB|GBd gdB|ABA A3:|

